usr/share/icons/biglinux-icons-material-dark/symbolic/actions/special_paste.svg

<svg version="1.1" viewBox="0 0 16 16" xmlns="http://www.w3.org/2000/svg">
 <defs>
  <style id="current-color-scheme" type="text/css">.ColorScheme-Text {
        color:#dedede;
      }</style>
 </defs>
 <path d="m8 0c-1.1046 0-2 0.89543-2 2h-2v0.0058594c-1.113 0.032581-2 0.93343-2 2.0547v8.8789c0 1.142 0.91863 2.0605 2.0605 2.0605h3.7012a4.5 4.5 0 0 1-0.49805-1h-3.2637c-0.554 0-1-0.446-1-1v-9c0-0.554 0.446-1 1-1h2v1s-1 0-1 1h6c0-0.75-0.56275-0.953-0.84375-1h-0.15625v-1h2c0.554 0 1 0.446 1 1v4.2637a4.5 4.5 0 0 1 1 0.49609v-4.6992c0-1.142-0.91863-2.0605-2.0605-2.0605h-1.9395c0-0.138-0.00525-0.27625-0.03125-0.40625-0.19615-0.93036-1.0178-1.5956-1.9688-1.5938zm-0.011719 1c0.0039102-2.289e-5 0.0078096-2.289e-5 0.011719 0 0.414 0 0.75425 0.266 0.90625 0.625 0.056891 0.11716 0.088816 0.24486 0.09375 0.375-6.1e-5 0.88813-1.0716 1.3352-1.7031 0.71094-0.63157-0.62426-0.19666-1.7005 0.69141-1.7109z" class="ColorScheme-Text" fill="currentColor"/>
 <path d="m11.5 9a3.5 3.5 0 0 0-3.5 3.5 3.5 3.5 0 0 0 3.5 3.5 3.5 3.5 0 0 0 3.5-3.5 3.5 3.5 0 0 0-3.5-3.5zm0 1 0.47852 1.3457 1.2891-0.61328-0.61328 1.2891 1.3457 0.47852-1.3457 0.47852 0.61328 1.2891-1.2891-0.61328-0.47852 1.3457-0.47852-1.3457-1.2891 0.61328 0.61328-1.2891-1.3457-0.47852 1.3457-0.47852-0.61328-1.2891 1.2891 0.61328z" class="ColorScheme-Text" fill="currentColor"/>
</svg>

<svg xmlns="http://www.w3.org/2000/svg" viewBox="0 0 16 16">
<defs>
<style id="current-color-scheme" type="text/css">
.ColorScheme-Contrast{color:#dedede}
</style>
</defs>
<path fill="currentColor" d="M8 0a2 2 0 0 0-2 2H4v.006c-1.113.032-2 .933-2 2.055v8.878C2 14.081 2.919 15 4.06 15h3.702a4.5 4.5 0 0 1-.498-1H4c-.554 0-1-.446-1-1V4c0-.554.446-1 1-1h2v1S5 4 5 5h6c0-.75-.563-.953-.844-1H10V3h2c.554 0 1 .446 1 1v4.264a4.5 4.5 0 0 1 1 .496v-4.7C14 2.92 13.08 2 11.94 2H10a2 2 0 0 0-.031-.406A2.01 2.01 0 0 0 7.999 0m-.012 1H8c.414 0 .754.266.906.625A.9.9 0 0 1 9 2c0 .888-1.072 1.335-1.703.71-.632-.623-.197-1.7.691-1.71" class="ColorScheme-Contrast"/>
<path fill="currentColor" d="M11.5 9A3.5 3.5 0 0 0 8 12.5a3.5 3.5 0 0 0 3.5 3.5 3.5 3.5 0 0 0 3.5-3.5A3.5 3.5 0 0 0 11.5 9m0 1 .479 1.346 1.289-.614-.614 1.29L14 12.5l-1.346.479.614 1.289-1.29-.614L11.5 15l-.479-1.346-1.289.614.614-1.29L9 12.5l1.346-.478-.614-1.29 1.29.614z" class="ColorScheme-Contrast"/>
</svg>
